Origami/48x48/apps/nsight.svg

<svg width="48" height="48" version="1" xmlns="http://www.w3.org/2000/svg">
 <rect transform="matrix(0,-1,-1,0,0,0)" x="-42" y="-41" width="34" height="34" rx="17" ry="17" style="opacity:.2"/>
 <rect transform="matrix(0,-1,-1,0,0,0)" x="-41" y="-41" width="34" height="34" rx="17" ry="17" style="fill:#4ca341"/>
 <path d="m24 7c-9.418 0-17 7.582-17 17 0 0.168936 0.0205447 0.332279 0.0253906 0.5 0.2653099-9.182564 7.7255454-16.5 16.974609-16.5s16.7093 7.317436 16.974609 16.5c0.004846-0.167721 0.025391-0.331064 0.025391-0.5 0-9.418-7.582-17-17-17z" style="fill:#ffffff;opacity:.2"/>
 <path d="m24 5c-3.443177 0-6.676866 0.8628798-9.5 2.3828125 6.261591 3.3711465 10.5 9.9803645 10.5 17.617188s-4.238409 14.246041-10.5 17.617188c2.823134 1.519932 6.056823 2.382812 9.5 2.382812 11.08 0 20-8.92 20-20s-8.92-20-20-20z" style="opacity:.2"/>
 <path d="m24 4c-3.443177 0-6.676866 0.8628798-9.5 2.3828125 6.261591 3.3711469 10.5 9.9803645 10.5 17.617188s-4.238409 14.246041-10.5 17.617188c2.823134 1.519932 6.056823 2.382812 9.5 2.382812 11.08 0 20-8.92 20-20s-8.92-20-20-20z" style="fill:#cccccc"/>
 <path d="M 24 4 C 20.556823 4 17.323134 4.8628798 14.5 6.3828125 C 14.814146 6.551944 15.120147 6.7347687 15.423828 6.9199219 C 18.020944 5.6906939 20.925779 5 24 5 C 34.912126 5 43.72361 13.653863 43.988281 24.5 C 43.992353 24.333141 44 24.167874 44 24 C 44 12.92 35.08 4 24 4 z M 24.982422 24.5 C 24.801012 31.923461 20.623781 38.320236 14.5 41.617188 C 14.802515 41.780057 15.112132 41.932551 15.423828 42.080078 C 21.173155 38.574738 25 32.253681 25 25 C 25 24.831922 24.986504 24.667058 24.982422 24.5 z" style="fill:#ffffff;opacity:.2"/>
</svg>

<svg xmlns="http://www.w3.org/2000/svg" width="48" height="48" version="1">
 <rect style="opacity:0.2" width="34" height="34" x="-42" y="-41" rx="17" ry="17" transform="matrix(0,-1,-1,0,0,0)"/>
 <rect width="34" height="34" x="-41" y="-41" rx="17" ry="17" transform="matrix(0,-1,-1,0,0,0)" style="fill:#4ca341"/>
 <path style="fill:#ffffff;opacity:0.2" d="M 24 7 C 14.582 7 7 14.582 7 24 C 7 24.168936 7.0205447 24.332279 7.0253906 24.5 C 7.2907005 15.317436 14.750936 8 24 8 C 33.249064 8 40.7093 15.317436 40.974609 24.5 C 40.979455 24.332279 41 24.168936 41 24 C 41 14.582 33.418 7 24 7 z"/>
 <path style="opacity:0.2" d="M 24,5 C 20.556823,5 17.323134,5.8628798 14.5,7.3828125 20.761591,10.753959 25,17.363177 25,25 25,32.636823 20.761591,39.246041 14.5,42.617188 17.323134,44.13712 20.556823,45 24,45 35.08,45 44,36.08 44,25 44,13.92 35.08,5 24,5 Z"/>
 <path d="M 24 4 C 20.556823 4 17.323134 4.8628798 14.5 6.3828125 C 20.761591 9.7539594 25 16.363177 25 24 C 25 31.636823 20.761591 38.246041 14.5 41.617188 C 17.323134 43.13712 20.556823 44 24 44 C 35.08 44 44 35.08 44 24 C 44 12.92 35.08 4 24 4 z" style="fill:#cccccc"/>
 <path style="fill:#ffffff;opacity:0.2" d="M 24 4 C 20.556823 4 17.323134 4.8628798 14.5 6.3828125 C 14.814146 6.551944 15.120147 6.7347687 15.423828 6.9199219 C 18.020944 5.6906939 20.925779 5 24 5 C 34.912126 5 43.72361 13.653863 43.988281 24.5 C 43.992353 24.333141 44 24.167874 44 24 C 44 12.92 35.08 4 24 4 z M 24.982422 24.5 C 24.801012 31.923461 20.623781 38.320236 14.5 41.617188 C 14.802515 41.780057 15.112132 41.932551 15.423828 42.080078 C 21.173155 38.574738 25 32.253681 25 25 C 25 24.831922 24.986504 24.667058 24.982422 24.5 z"/>
</svg>
